X: 15563
T: Glories Of Spring, The
R: hornpipe
M: 4/4
K: Gminor
|:G,A,|B,3G, A,3C|G,A,B,C DGGA|BG (3G^FG G=FDE|F3D CA,A,C|
B,3G, A,3C|G,A,B,C DGGA|BGA^F G=FDE|FDCA, G,2:|
|:DE|FG (3FED B,DFA|B3c d2 Bc|d3e dBGA|BG (3G^FG G=FDE|
FG (3FED B,DFA|B3c d2 Bc|d3e dBGA|BGA^F G2:|

